!!!OTL: LEB WOHL DU THEURES LAND DAS MICH GEBOREN
!!!ARE: Europa, Mitteleuropa, Deutschland
!!!SCT: B0095
!!!YEM: Copyright 1995, estate of Helmut Schaffrath.
**kern
*ICvox
*Ivox
*M4/4
*k[]
*C:
{8e
8e
8c
=1
4.g
8g
8g
8g
8a
8g
=2
4g
4f
8r}
{8f
8g
8f
=3
4.e
8e
8e
8c
8g
8e
=4
2d
8r}
{8d
8d
8d
=5
4.g
8g
8g
8g
8a
8b
=6
8b
8a
4.a}
{8a
8cc
8a
=7
4.g
8g
8g
8f#
8b
8a
=8
2g
8r}
{8g
8g
8g
=9
4.dd
8dd
8cc
8b
8a
8g
=10
4cc
4g
8r}
{8g
8a
8b
=11
4.cc
8e
8a
8g
8e
8c
=12
2d
8r}
{8g
8g
8f
=13
4.e
8e
8f
8e
8f
8d
=14
8a
8g
4g
8r}
{8cc
8b
8a
=15
4.g
8g
8a
8g
8f
8d
=16
2c
8r}
{8g
8g
8f
=17
4.e
8e
8f
8e
8f
8d
=18
8a
8g
4g
8r}
{8cc
8b
8a
=19
4.g
8g
8a
8g
8f
8d
=20
2c
8r}
==
!!!AGN: Helden -, Ehren -, Gedaechtnis -, Kriegs - Lied
!!!ONB: ESAC (Essen Associative Code) Database: BOEHME
!!!AMT: simple quadruple
!!!AIN: vox
!!!EED: Helmut Schaffrath
!!!EEV: 1.0
*-
